X:100
T:Hawthorn bush (Hard)
%%VWML:SBG-1-2-244-0
F:http://www.vwml.org/record/SBG/1/2/244
Z:Original Sibelius transcriptions by M. & S. Graebe
M:4/4
I:linebreak $
K:C
V:1 treble nm="P1"
V:1
 E2 | A2 B2 c2 BA | ^GA B A3 c d | e2 dc Bc B2 | A6 B2 | Bc d2 cB c2 |$ d2 ^G A3 z A | %7
 D2 =FA ^G^F E2 | A6 c | e2 f2 ed B2 | A6 x2 | %11

